!!!COM: Schubert, Franz
!!!CDT: 1797/01/31/-1828/11/19/
!!!CNT: Austrian
!!!OTL: Trio for violin, viola and violon cello
!!!ODT: 1816/09//
**kern
*staff2
*Iviola
*>[A,A,B,B]
*>norep[A,B]
*>A
*clefC3
*k[b-e-]
*met(C)
*M4/4
*MM160
=1-
(8d\L
8f\
8d\
8f\J)
(8d\L
8f\
8e-\
8c\J)
=2
(8d\L
8f\
8b-\
8f\J)
(8d\L
8f\
8c\
8f\J)
=3
(8B-\L
8d\
8g\
8d\J)
(8B-\L
8d\
8B-\
8d\J)
=4
(8F/L
8d/)
8c'/
8B-'/J
(8f\L
8e-\)
8d'\
8c'\J
=5
(8d\L
8f\
8d\
8f\J)
(8d\L
8f\
8e-\
8c\J)
=6
(8d\L
8f\
8b-\
8f\J)
(8d\L
8f\
8c\
8f\J)
=7
(8B-\L
8d\
8g\
8d\J)
(8B-\L
8d\
8B-\
8d\J)
=8
(8F/L
8d/)
8c'/
8B-'/J
(8f\L
8e-\)
8d'\
8c'\J
=9
4B-'/
4d'\
4f'\
4r
=10
4d\
(8.f\L
32en\LL
32f\JJJ)
4b-\
4r
=11
([2F/ 2d/
.
.
.
.
.
4F/] 4e-/
.
.
4A/)
.
.
=12
4B-'/
4d'\
4f'\
4r
=13
4d\
(8.f\L
32en\LL
32f\JJJ)
4b-\
4r
=14
[2F/ (2B-/
.
.
.
.
.
4F/] 4A/
.
.
4e-\)
.
.
=15
8d\L
8b-\
8b-\
8b-\J
8b-\L
8b-\
*
8b-\
8b-\J
=16
8b-\L
8b-\
8b-\
8b-\J
8b-\L
8b-\
8b-\
8b-\J
=17
8b-\L
8b-\
8b-\
8b-\J
8b-\L
8b-\
8b-\
8b-\J
=18
8b-\L
8b-\
8b-\
8b-\J
8b-\L
8b-\
8b-\
8b-\J
.
=19
8b-\L
8b-\
8b-\
8b-\J
8b-\L
8b-\
8b-\
8b-\J
=20
8b-\L
8b-\
8b-\
8b-\J
8cc-\L
8cc-\
8cc-\
8cc-\J
=21
8b-\L
8b-\
8b-\
8b-\J
8b-\L
8b-\
8b-\
8b-\J
=22
8b-\L
8b-\
8b-\
8b-\J
8b-\L
8b-\
8b-\
8b-\J
=23
8a\L
8f\
8f\
8f\J
4f\
(4f\
=24
4g\
4a\
(2b-\)
.
=25
(8a\L)
8f\)
8f'\
8f'\J
4f\
(4F/
=26
*
4G/
4A/
(2B-/)
.
=27
4A/)
4r
2r
=28
1r
.
.
.
=29
4r
(4a\
4f\
4c\)
=30
8B-/
8r
.
(4b-'\
.
4b-'\
.
4b-'\)
.
=31
4b-\
4r
2r
.
.
.
.
.
.
=32
2r
.
([4dd\
24dd\LL]
24cc\
24b-\
24a\
24g\
24f\JJ)
=33
4en'\
4r
2r
.
=34
4r
(4b-\
4g\
4en\)
=35
8f\
8r
.
*
(4cc'\
.
4cc'\
.
4cc'\)
.
=36
4cc\
4r
2r
.
.
.
.
.
=37
2r
.
*
([4f\
32f/LLL]
32en/
32d/
32c/
32B-/
32A/
32G/
32F/JJJ)
=38
4E-/
.
4A'\ (4f'\
.
4A'\ 4f'\
.
4A'\ 4f'\)
.
=39
(8F/L
8B-/)
8d'/
8f'/J
(8b-\L
8dd\)
8ff'\
8f'\J
=40
(8f\L
8a\)
8b-'\
8a'\J
(8a\L
8g\)
8f'\
8en'\J
=41
8f\L
8c\
8c\
8c\J
.
.
8c\L
8c\
.
.
8c\
8c\J
=42
8c\L
8c\
8c\
8c\J
.
8c\L
8c\
8c\
8c\J
=43
8c\L
8c\
8c\
8c\J
.
.
8c\L
8c\
.
.
8c\
8c\J
=44
8c\L
8c\
8c\
8c\J
.
8c\L
8c\
8c\
8c\J
=45
8c\L
8c\
8c\
8c\J
2f#\
.
.
=46
(4.fn\
16g\LL
16f\JJ)
2en\
.
.
=47
(4.e-\
.
16f\LL
16e-\JJ)
(8d\L
8dd\
8cc\
8b-\J)
=48
(8a\L
8cc\)
8b-'\
8a'\J
(8a\L
8g\)
8f'\
8c'\J
=49
4A/
.
4r
.
(fq/LL
gq/JJ)
4a'\
.
(fq/LL
gq/JJ
4a'\)
.
=50
(4.b-\
.
.
16cc\LL
16b-\JJ
8a\L
8g\
8f\
8en\J)
=51
(4g\
.
8f\)
8r
.
.
(4cc\
.
.
.
4f\)
.
=52
(2en\
.
.
.
.
8f\L
8g\
8a\
8b-\J)
=53
(4b-\
.
8a\)
8r
2f#\
.
.
=54
(4.fn\
16g\LL
16f\JJ)
2en\
.
.
=55
(4.e-\
.
16f\LL
(16e-\JJ)
8d\L
8dd\
8cc\
&(8b-\J&))
=56
(8a\L
8cc\)
8b-'\
8a'\J
(8a\L
8g\)
8f'\
8c'\J
=57
4A/
.
.
12f'\L
12a'\
12cc'\J
12ff\L
12ff\
12ff\J
12gg\L
12gg\
12gg\J
=58
12ff\L
12ff\
12ff\J
12ff#\L
12ff#\
12ff#\J
12gg\L
12gg\
12gg\J
12ee-\L
12ee-\
12ee-\J
=59
8dd\
8r
4r
gq/LLL
aq/JJJ
4b-^\
.
8b-\L
8b-\J
=60
(8b-\L
8a\J)
4r
.
gq/LLL
aq/JJJ
4b-^\
.
8b-'\L
8b-'\J
=61
(8b-\L
8a\J)
4r
.
gq/LLL
aq/JJJ
4b-\
.
8b-'\L
8b-'\J
=62
(8b-^\L
8a\J)
8cc'\L
8cc'\J
(8cc^\L
8b-\J)
8a'\L
8a'\J
=63
(8a^\L
8b-\J)
8cc'\L
8cc'\J
(8cc^\L
8b-\J)
8a'\L
8a'\J
=64
(8a\L
8b-\J)
8a'\L
8a'\J
(8a\L
8b-\J)
8a'\L
8a'\J
=65
(2.a\
4ee-\)
=66
4dd\
4r
4r
8g#\L
8g#\J
=67
4a\
.
4r
4B-/
.
4r
=68
1A 1f
.
.
.
.
.
=69
1B- 1en
.
.
.
.
.
=70
1A 1f
.
.
.
.
.
=71
1B- 1en
.
.
.
.
.
=72
[1C (1B-
.
.
=73
2C/] 2A/)
2r
=74:|!|:
*>B
(2.A/
8c/L
8B-/J)
=75
2B-/
2r
=76
(2.B-/
8d-\L
8c\J)
=77
(2c/
4B-/
4A-/)
=78
(2G/
4A-/
4B-/)
.
=79
2c\
.
2r
.
=80
(2.c\
8e-\L
8d-\J)
=81
(2d-\
4c\
4B-/)
=82
(2An/
4B-/
4c/)
.
=83
4d-\
(4d-\
4e-\
4f\)
=84
(1g-
.
.
.
.
.
.
.
=85
(2f\)
.
.
.
4e-\
.
4d-\)
.
=86
(2c\
.
.
.
4d-\
.
4e-\)
.
=87
(2.c\
.
8e-\L
8d-\J)
=88
2d-\
2r
.
.
=89
(2.d-\
.
8f\L
8e-\J)
=90
2e-\
2r
.
.
*
=91
(2.e-\
.
8g\L
8f\J)
=92
4f\
4r
.
(4f^\
8a-\L
8gn\J)
=93
4g\
4r
.
(4g^\
8b-\L
8an\J)
=94
4a\
4r
.
(4a^\
8cc\L
8b-\J)
=95
4b-\
4r
.
(4b-^\
8cc\L
8b-\J)
=96
4a\
4r
.
(4a^\
8b-\L
8a\J)
=97
4g\
4r
.
(4g^\
8a\L
8g\J)
=98
4f\
4r
.
(4f^\
8g\L
8f\J)
=99
(2e-\
.
.
2d\
.
.
=100
2c\
.
.
2B-/)
.
.
*
=101
(4A/
8B-/L
8A/J)
2B-/
.
.
=102
(4A/
8B-/L
8A/J)
2B-/
.
.
=103
(4F#/
8G/L
8F#/J)
2G/
.
.
=104
(4F#/
8G/L
8F#/J)
2G/
.
.
=105
2F#/
2r
.
.
=106
1r
.
.
.
=107
8d\L
8d\
8d\
8d\J
8d\L
8d\
8d\
8d\J
=108
8d\L
8d\
8d\
8d\J
8d\L
8d\
8d\
8d\J
=109
8c\L
8c\
8c\
8c\J
8c\L
8c\J
8f#\L
8f#\J
=110
8g\L
8g\
8g\
8g\J
8d\L
8d\
8d\
8d\J
=111
8d\L
8d\
8d\
8d\J
8e-\L
8e-\
8e-\
8e-\J
=112
8d\L
8d\
8d\
8d\J
8d\L
8d\
8d\
8d\J
=113
8f\L
8f\
8f\
8f\J
8f\L
8f\J
8a\L
8a\J
=114
8b-\L
8b-\
8b-\
8b-\J
8f\L
8f\
8f\
8f\J
=115
8f\L
8f\
8f\
8f\J
8f\L
8f\
8f\
8f\J
=116
8f\L
8f\
8f\
8f\J
8f\L
8f\
8f\
8f\J
=117
8f\L
8f\
8f\
8f\J
8f\L
8f\
8f\
8f\J
=118
8f\L
8f\
8f\
8f\J
8f\L
8f\
8f\
8f\J
=119
8f\L
8f\
8f\
8f\J
8f\L
8f\
8f\
8f\J
=120
8f\L
8f\
8f\
8f\J
8f\L
8f\
8f\
8f\J
=121
(2g\
.
2a-\)
.
=122
(2g\
.
2a-\)
.
=123
(2g\
.
2dd-\)
.
*
=124
(2cc\
.
2b-\
.
=125
2cc\
.
2b-\)
.
=126
[1a
.
.
.
.
=127
(2.a\]
.
.
4e-\)
.
*
=128
(8d\L
8f\
8d\
8f\J)
(8d\L
8f\
8e-\
8c\J)
=129
(8d\L
8f\
8b-\
8f\J)
(8d\L
8f\
8c\
8f\J)
=130
(8B-\L
8d\
8g\
8d\J)
(8B-\L
8d\
8B-\
8d\J)
=131
(8F/L
8d/)
8c'/
8B-'/J
(8f\L
8e-\)
8d'\
8c'\J
=132
(8d\L
8f\
8d\
8f\J)
(8d\L
8f\)
8e-'\
8c'\J
=133
(8d\L
8f\
8b-\
8f\J)
(8d\L
8f\
8c\
8f\J)
=134
(8B-\L
8d\
8g\
(8d\J)
8B-\L
8d\
8B-\
8d\J)
=135
(8F/L
8d/)
8c'/
8B-'/J
(8f\L
8e-\)
8d'\
8c'\J
=136
4B-'/
4d'\
4f'\
4r
=137
4d\
(8.f\L
32en\LL
32f\JJJ)
4b-\
4r
=138
[2F/ (2d/
.
.
.
.
.
4F/] 4e-/)
.
.
4A/
.
.
=139
4B-'/
4d'\
4f'\
4r
=140
4d\
(8.f\L
32en\LL
32f\JJJ)
4a-\
4r
=141
(2f\
.
.
.
.
.
2d\)
.
.
.
.
.
=142
(2f\
.
.
.
.
.
2a-\)
.
.
.
.
.
=143
8g\L
8e-\
8e-\
8e-\J
8e-\L
8e-\
8e-\
8e-\J
=144
8e-\L
8e-\
8e-\
(8e-\J
8e-\L
8e-\
8e-\)
8e-\J
=145
8e-\L
8e-\
8e-\
8e-\J
8e-\L
8e-\
8e-\
8e-\J
=146
8e-\L
8e-\
8e-\
8e-\J
8e-\L
8e-\
8e-\
8e-\J
.
=147
8e-\L
8e-\
8e-\
8e-\J
8e-\L
8e-\
8e-\
8e-\J
=148
8e-\L
8e-\
8e-\
8e-\J
8f-\L
8f-\
8f-\
8f-\J
=149
8e-\L
8e-\
8e-\
8e-\J
8e-\L
8e-\
8e-\
8e-\J
=150
8e-\L
8e-\
8e-\
8e-\J
8e-\L
8e-\
8e-\
8e-\J
=151
(8d\L
8B-\)
8B-'\
8B-'\J
4B-/
(4b-\
=152
4cc\
4dd\
2ee-\)
.
=153
(8dd\L
8b-\)
8b-'\
8b-'\J
4b-\
(4B-/
=154
4c\
4d\
(2e-\)
.
=155
4d\)
4r
2r
=156
1r
.
.
.
=157
4r
(4d\
4B-/
4F/)
=158
8E-/
8r
.
(4e-'\
.
4e-'\
.
4e-'\)
.
=159
4e-\
4r
2r
.
.
.
.
.
.
=160
2r
.
.
([4g\
24g\LL]
24f\
24e-\
24d\
24c\
24B-\JJ)
=161
8A/
8r
4r
2r
.
=162
4r
(4e-\
4c\
4A/)
=163
8B-/
8r
.
(4f'\
.
4f'\
.
4f'\)
.
=164
4f\
4r
2r
.
.
.
.
.
=165
2r
.
.
([4b-\
32b-\LLL]
32a\
32g\
32f\
32e-\
32d\
32c\
32B-\JJJ)
=166
4A-/
.
4d'\ (4b-'\
.
4d'\ 4b-'\
.
4d'\ 4b-'\)
.
=167
(8B-\L
8e-\)
8g'\
8b-'\J
(8ee-\L
8gg\)
8bb-'\
8b-'\J
=168
(8b-\L
8dd\)
8ee-'\
8dd'\J
(8dd\L
8cc\)
8b-'\
8f'\J
=169
8d\L
8f\
8f\
8f\J
.
.
8f\L
8f\
.
.
8f\
8f\J
=170
8f\L
8f\
8f\
8f\J
.
8f\L
8f\
8f\
8f\J
=171
8f\L
8f\
8f\
8f\J
.
.
8f\L
8f\
.
.
8f\
8f\J
=172
8f\L
8f\
8f\
8f\J
.
8f\L
8f\
8f\
8f\J
=173
8f\L
8f\
8f\
8f\J
2bn\
.
.
=174
(4.b-\
16cc\LL
16b-\JJ)
2a\
.
.
=175
(4.a-\
.
16b-\LL
16a-\JJ)
(4g\
.
8f\L
8e-\J)
=176
(8d\L
8f\)
8e-'\
8d'\J
(8d/L
8c/)
8B-'/
8A'/J
=177
4B-/
.
4r
.
(b-q/LLL
ccq/JJJ
4dd'\)
.
(b-q/LLL
ccq/JJJ)
4dd'\
.
=178
(4.ee-\
.
.
16ff\LL
16ee-\JJ
8dd\L
8cc\
8b-\
8a\J)
=179
(4cc\
.
8b-\)
8r
.
.
(4ff\
.
.
.
4b-\)
.
=180
(2a\
.
.
.
.
8b-\L
8cc\
8dd\
8ee-\J)
=181
(4ee-\
.
8dd\)
8r
2bn\
.
.
=182
(4.b-\
16cc\LL
16b-\JJ)
2a\
.
.
=183
(4.a-\
.
16b-\LL
16a-\JJ)
(4g\
.
8f\L
8e-\J)
=184
(8d\L
8f\)
8e-'\
8d'\J
(8d/L
8c/)
8B-'/
8A'/J
=185
8B-/
.
8r
.
12d\L
12f\
12b-\J
12dd\L
12dd\
12dd\J
12cc\L
12cc\
12cc\J
=186
12b-\L
12b-\
12b-\J
12bn\L
12b\
12b\J
12cc\L
12cc\
12cc\J
12a-\L
12a-\
12a-\J
=187
8g\
8r
4r
ccq/LLL
ddq/JJJ
4ee-\
8ee-'\L
8ee-'\J
=188
(8ee-\L
8dd\J)
4r
.
(ccq/LLL
ddq/JJJ)
4ee-\
.
8ee-'\L
8ee-'\J
=189
(8ee-\L
8dd\J)
4r
.
(ccq/LLL
ddq/JJJ)
4ee-\
.
8ee-\L
8ee-\J
*
=190
(8ee-^\L
8dd\J)
8ff'\L
8ff'\J
8ff^\L
8ee-\J
8dd'\L
8dd'\J
=191
(8dd^\L
8ee-\J)
8ff'\L
8ff'\J
8ff^\L
8ee-\J
8dd'\L
8dd'\J
=192
(8dd^\L
8ee-\J)
8dd'\L
8dd'\J
(8dd^\L
8ee-\J)
8dd'\L
8dd'\J
=193
(2.dd\
4a-\)
=194
4g\
4r
4r
8dd-'\L
8dd-'\J
=195
4ddn\
.
4r
4c\ 4e-\
.
4r
*
=196
1d 1b-
.
.
.
.
.
=197
1e- 1an
.
.
.
.
.
=198
1d 1b-
.
.
.
.
.
=199
1e- 1a
.
.
.
.
.
=200
[1F (1e-
.
.
=201
2F/] 2d/)
2r
=
*-
!!!ENC: Craig Stuart Sapp
!!!END: 2005/08/03/
